X:1
T: Chapelwell
C:C Sherrit
R:Jig
Q:180
K:Bm
M:6/8
L:1/16
|:c2|B2c2B2 F4B2|d2c2B2 f4d2|c2d2e2 A4c2|E2A2c2 e2d2c2|
d2e2f2 B2c2d2|G2A2B2 E4G2|F2^A2c2 f4e2|1d2e2c2 B4:|2d2e2c2 B4c2|
|:d4a2 f2e2d2|f2A2a2 f2e2d2|c4d2 e2c2^A2|e2c2g2 e2d2c2|
|1d4a2 f2e2d2|c4g2 e2d2c2|d2c2B2 f4e2|d2e2c2 B4c2:|
|2d2e2f2 B2c2d2|G2A2B2 E4G2|F2^A2c2 f4e2|d2e2c2 B4||
